frontend/ui/play/assets/images/mpchess/wB.svg

<?xml version="1.0" encoding="UTF-8"?>
<svg xmlns="http://www.w3.org/2000/svg" xmlns:xlink="http://www.w3.org/1999/xlink" width="150px" height="150px" viewBox="0 0 150 150" version="1.1">
<g id="surface1">
<path style="fill-rule:nonzero;fill:rgb(100%,100%,100%);fill-opacity:1;stroke-width:0.386043;stroke-linecap:butt;stroke-linejoin:miter;stroke:rgb(0%,0%,0%);stroke-opacity:1;stroke-miterlimit:4;" d="M 6.541908 294.177949 C 7.620095 294.177949 7.667056 295.036081 7.667056 295.672992 L 2.06911 295.672992 C 2.06911 295.022962 2.115113 294.177949 3.19306 294.177949 Z M 6.551971 294.164059 C 6.753952 293.872098 7.749957 291.953906 5.802032 289.998929 C 5.802032 289.998929 5.019029 291.087028 4.888928 292.694997 L 4.41189 292.693968 C 4.403025 291.21796 5.422032 289.689991 5.422032 289.689991 C 6.241933 288.030062 3.547903 288.024917 4.292092 289.689991 C 2.017118 291.698987 3.029894 293.908883 3.196894 294.164059 Z M 6.551971 294.164059 " transform="matrix(16.303413,0,0,15.185602,-3.538245,-4357.812167)"/>
</g>
</svg>

<svg xmlns="http://www.w3.org/2000/svg" width="10mm" height="10mm" viewBox="0 0 10 10"><g style="fill:#fff;fill-opacity:1"><g style="fill:#fff;fill-opacity:1;stroke-width:.09651081;stroke-miterlimit:4;stroke-dasharray:none"><path d="M6.542 294.178c1.078 0 1.125.858 1.125 1.495H2.069c0-.65.046-1.495 1.124-1.495zm.01-.014c.202-.292 1.198-2.21-.75-4.165 0 0-.783 1.088-.913 2.696l-.477-.001c-.009-1.476 1.01-3.004 1.01-3.004.82-1.66-1.874-1.665-1.13 0-2.275 2.009-1.262 4.219-1.095 4.474z" style="fill:#fff;fill-opacity:1;stroke:#000;stroke-width:.38604325;stroke-linecap:butt;stroke-linejoin:miter;stroke-miterlimit:4;stroke-dasharray:none;stroke-opacity:1" transform="matrix(1.07361 0 0 1 -.233 -286.97)"/></g></g></svg>
